app/img/svg-sprite/question.svg

<svg width="35" height="35" viewBox="0 0 35 35" fill="none" xmlns="http://www.w3.org/2000/svg">
<path d="M29.8744 5.12559C26.569 1.82034 22.1744 0 17.5 0C12.8256 0 8.43097 1.82034 5.12559 5.12559C1.82034 8.43097 0 12.8256 0 17.5C0 20.5833 0.809102 23.5998 2.34377 26.2528L0 35L8.7472 32.6562C11.4002 34.1909 14.4167 35 17.5 35C22.1744 35 26.569 33.1797 29.8744 29.8744C33.1797 26.569 35 22.1744 35 17.5C35 12.8256 33.1797 8.43097 29.8744 5.12559ZM17.5 33.5C14.6457 33.5 11.5441 32.5494 9.1229 31.0645L8.7472 30.8342L2.34377 32.6562L4.5 26.2528L4 25.5C2.5151 23.0788 1.5 20.3543 1.5 17.5C1.5 8.98126 8.98126 1.5 17.5 1.5C26.0187 1.5 33.5 8.98126 33.5 17.5C33.5 26.0187 26.0187 33.5 17.5 33.5Z" fill="#6F6F6F" fill-opacity="0.2"/>
<path d="M18.5254 24.165H16.4746V26.2158H18.5254V24.165Z" fill="#6F6F6F" fill-opacity="0.2"/>
<path d="M17.5 8.78418C14.673 8.78418 12.373 11.0841 12.373 13.9111H14.4238C14.4238 12.2149 15.8038 10.835 17.5 10.835C19.1962 10.835 20.5762 12.2149 20.5762 13.9111C20.5762 14.6686 20.2979 15.3967 19.7923 15.9616L16.4746 19.6718V22.1143H18.5254V20.4551L21.3207 17.329C22.1631 16.3878 22.627 15.1741 22.627 13.9111C22.627 11.0841 20.327 8.78418 17.5 8.78418Z" fill="#6F6F6F" fill-opacity="0.2"/>
</svg>

<svg xmlns="http://www.w3.org/2000/svg" viewBox="0 0 35 35"><defs><style>.cls-1{fill:#6f6f6f;fill-opacity:0.2;}</style></defs><title>question</title><g id="Слой_2" data-name="Слой 2"><g id="Слой_1-2" data-name="Слой 1"><path class="cls-1" d="M29.87,5.13a17.48,17.48,0,0,0-24.74,0A17.5,17.5,0,0,0,2.34,26.25L0,35l8.75-2.34A17.5,17.5,0,0,0,29.87,5.13ZM17.5,33.5a16.66,16.66,0,0,1-8.38-2.44l-.37-.23L2.34,32.66,4.5,26.25,4,25.5a15.49,15.49,0,0,1-2.5-8,16.42,16.42,0,0,1,16-16,16.42,16.42,0,0,1,16,16A16.42,16.42,0,0,1,17.5,33.5Z"/><path class="cls-1" d="M18.53,24.17H16.47v2h2.06Z"/><path class="cls-1" d="M17.5,8.78a5.13,5.13,0,0,0-5.13,5.13h2.05a3.08,3.08,0,0,1,6.16,0A3,3,0,0,1,19.79,16l-3.32,3.71v2.44h2.06V20.46l2.79-3.13A5.13,5.13,0,0,0,17.5,8.78Z"/></g></g></svg>
